Dominus_Dark_Funeral/22/mimes/audio-midi.svg

<svg xmlns="http://www.w3.org/2000/svg" width="24" height="24" viewBox="0 0 6.35 6.35"><path d="M.416.265a.283.283 0 0 0-.284.283v5.254c0 .157.127.283.284.283h5.518a.283.283 0 0 0 .284-.283V.548a.283.283 0 0 0-.284-.283zM.661.78h.719v2.394h.239v2.394H.661zm1.437 0h.718v2.394h.24v2.394H1.857V3.175h.24zm1.436 0h.718v2.394h.24v2.394H3.295V3.175h.24zm1.436 0h.719V5.57H4.73V3.175h.24z" fill="#e6e6e6" fill-rule="evenodd"/></svg>

<?xml version="1.0" encoding="UTF-8" standalone="no"?>
<svg
   xmlns:dc="http://purl.org/dc/elements/1.1/"
   xmlns:cc="http://creativecommons.org/ns#"
   xmlns:rdf="http://www.w3.org/1999/02/22-rdf-syntax-ns#"
   xmlns:svg="http://www.w3.org/2000/svg"
   xmlns="http://www.w3.org/2000/svg"
   xmlns:sodipodi="http://sodipodi.sourceforge.net/DTD/sodipodi-0.dtd"
   xmlns:inkscape="http://www.inkscape.org/namespaces/inkscape"
   width="24"
   height="24"
   viewBox="0 0 6.35 6.35"
   version="1.1"
   id="svg4"
   sodipodi:docname="audio-midi.svg"
   inkscape:version="0.92.4 (5da689c313, 2019-01-14)">
  <metadata
     id="metadata10">
    <rdf:RDF>
      <cc:Work
         rdf:about="">
        <dc:format>image/svg+xml</dc:format>
        <dc:type
           rdf:resource="http://purl.org/dc/dcmitype/StillImage" />
        <dc:title></dc:title>
      </cc:Work>
    </rdf:RDF>
  </metadata>
  <defs
     id="defs8" />
  <sodipodi:namedview
     pagecolor="#ffffff"
     bordercolor="#666666"
     borderopacity="1"
     objecttolerance="10"
     gridtolerance="10"
     guidetolerance="10"
     inkscape:pageopacity="0"
     inkscape:pageshadow="2"
     inkscape:window-width="1112"
     inkscape:window-height="480"
     id="namedview6"
     showgrid="false"
     inkscape:zoom="9.8333333"
     inkscape:cx="1.0677966"
     inkscape:cy="12"
     inkscape:window-x="0"
     inkscape:window-y="25"
     inkscape:window-maximized="0"
     inkscape:current-layer="svg4" />
  <path
     d="M 0.416,0.265 A 0.283,0.283 0 0 0 0.132,0.548 v 5.254 c 0,0.157 0.127,0.283 0.284,0.283 H 5.934 A 0.283,0.283 0 0 0 6.218,5.802 V 0.548 A 0.283,0.283 0 0 0 5.934,0.265 Z M 0.661,0.78 H 1.38 V 3.174 H 1.619 V 5.568 H 0.661 Z m 1.437,0 h 0.718 v 2.394 h 0.24 V 5.568 H 1.857 V 3.175 h 0.24 z m 1.436,0 h 0.718 v 2.394 h 0.24 V 5.568 H 3.295 V 3.175 h 0.24 z m 1.436,0 H 5.689 V 5.57 H 4.73 V 3.175 h 0.24 z"
     id="path2"
     inkscape:connector-curvature="0"
     style="fill:#e6e6e6;fill-rule:evenodd" />
</svg>
